skin/frontend/rwd/default/images/icon-appointment-ac3.svg

<?xml version="1.0" encoding="UTF-8" standalone="no"?>
<!-- Generator: Adobe Illustrator 15.1.0, SVG Export Plug-In . SVG Version: 6.00 Build 0)  -->
<!DOCTYPE svg  PUBLIC '-//W3C//DTD SVG 1.1//EN'  'http://www.w3.org/Graphics/SVG/1.1/DTD/svg11.dtd'>
<svg id="Layer_1" xmlns="http://www.w3.org/2000/svg" xml:space="preserve" height="29.04px" viewBox="0 0 30 29.04" width="30px" version="1.1" y="0px" x="0px" xmlns:xlink="http://www.w3.org/1999/xlink" enable-background="new 0 0 30 29.04">
<path d="m10.736 17.395h-4.288v-4.238h4.289v4.238zm6.482-4.239h-4.289v4.238h4.289v-4.238zm6.48 0h-4.29v4.238h4.29v-4.238zm-12.962 6.186h-4.288v4.239h4.289v-4.239zm6.482 0h-4.289v4.239h4.289v-4.239zm6.48 0h-4.29v4.239h4.29v-4.239zm1.598-14.739c0 0.721-0.592 1.307-1.323 1.307-0.73 0-1.324-0.586-1.324-1.307v-3.291c0-0.722 0.594-1.307 1.324-1.307 0.731 0 1.323 0.585 1.323 1.307v3.291zm-17.877-3.297c0-0.722-0.593-1.306-1.323-1.306s-1.324 0.584-1.324 1.306v3.289c0 0.722 0.593 1.308 1.323 1.308s1.323-0.586 1.323-1.308v-3.289zm19.477 1.909v1.339c0 1.591-1.313 2.887-2.923 2.887-1.611 0-2.922-1.296-2.922-2.887v-1.339h-12.033v1.332c0 1.593-1.311 2.888-2.922 2.888s-2.922-1.295-2.922-2.888v-1.332h-3.174v25.825h30v-25.825h-3.104zm0.191 22.947h-24.174v-16.004h24.174v16.004z" fill="#AACB38"/>
</svg>

<?xml version="1.0" encoding="UTF-8"?>
<!-- Generator: Adobe Illustrator 15.1.0, SVG Export Plug-In . SVG Version: 6.00 Build 0)  -->
<!DOCTYPE svg PUBLIC "-//W3C//DTD SVG 1.1//EN" "http://www.w3.org/Graphics/SVG/1.1/DTD/svg11.dtd">
<svg version="1.1" id="Layer_1" xmlns="http://www.w3.org/2000/svg" xmlns:xlink="http://www.w3.org/1999/xlink" x="0px" y="0px" width="30px" height="29.04px" viewBox="0 0 30 29.04" enable-background="new 0 0 30 29.04" xml:space="preserve">
<path fill="#AACB38" d="M10.736,17.395H6.448v-4.238h4.289V17.395z M17.218,13.156h-4.289v4.238h4.289V13.156z M23.698,13.156h-4.29  v4.238h4.29V13.156z M10.736,19.342H6.448v4.239h4.289V19.342z M17.218,19.342h-4.289v4.239h4.289V19.342z M23.698,19.342h-4.29  v4.239h4.29V19.342z M25.296,4.603c0,0.721-0.592,1.307-1.323,1.307c-0.73,0-1.324-0.586-1.324-1.307V1.312  c0-0.722,0.594-1.307,1.324-1.307c0.731,0,1.323,0.585,1.323,1.307V4.603z M7.419,1.306C7.419,0.584,6.826,0,6.096,0  S4.772,0.584,4.772,1.306v3.289c0,0.722,0.593,1.308,1.323,1.308s1.323-0.586,1.323-1.308V1.306z M26.896,3.215v1.339  c0,1.591-1.313,2.887-2.923,2.887c-1.611,0-2.922-1.296-2.922-2.887V3.215H9.018v1.332c0,1.593-1.311,2.888-2.922,2.888  c-1.611,0-2.922-1.295-2.922-2.888V3.215H0V29.04h30V3.215H26.896z M27.087,26.162H2.913V10.158h24.174V26.162z"/>
</svg>
